X:1
T:Title
%%score { 1 | 2 }
L:1/8
M:6/8
K:G
V:1 treble nm="Grand Piano"
V:2 bass 
V:1
 z3 z2[Q:1/4=100] [G,B,D] | [B,DG][B,DG][B,DG] [B,DG][G,B,D][B,DG] | BBB BGB | d>dd dcB | %4
 [DFA]3- [DFA]2 [CD] | [B,DG][B,DG][B,DG] [B,DG][G,B,D][B,DG] | BBB BGB | %7
 [Fd]>[Fd][Fd] [Fd][Fc][CFA] |[M:5/8] [B,DG]-[B,DG]- [B,DG]3 |[M:1/8] [Gd] | %10
[M:3/4] [G,B,Gd]3 [DGB]2 [Gd] | [D,A,Fc]3 [FA]2 [Fc] | B>A GE F[^CG] | [CA]4- [CA][CD] | %14
 [B,DG][B,DG] [B,DG][B,DG] [G,B,D][B,DG] | BB BB GB | [Fd]>[Fd] [Fd][Fd] [Fc][CFA] | %17
[M:5/8] [B,DG]-[B,DG]- [B,DG]3 |] %18
V:2
 z3 z2 G,, | G,,G,,G,, G,,G,,G,, | [G,DG][G,DG][G,DG] [G,DG][G,B,D][G,DG] | %3
 [G,B,G]>[G,B,G][G,B,G] [B,DG][A,DF][G,DG] | D,3- D,2 D, | G,,G,,G,, G,,G,,G,, | %6
 [G,DG][G,DG][G,DG] [G,DG][G,B,D][G,G] | [D,A,]>[D,A,][D,A,] [D,A,][D,A,]D, | %8
[M:5/8] G,,-G,,- G,,3 |[M:1/8] [G,B,] |[M:3/4] G,,B,, D, G,2 [G,B,] | D,,F,, A,, [D,D]2 [D,D] | %12
 [G,DG]>[G,CD] [G,B,D][A,^C] [A,C][K:bass][A,,A,] | [D,F,]4- [D,F,]D, | G,,G,, G,,G,, G,,G,, | %15
 [G,DG][G,DG] [G,DG][G,DG] [G,B,D][G,G] | [D,A,]>[D,A,] [D,A,][D,A,] [D,A,]D, | %17
[M:5/8] G,,-G,,- G,,3 |] %18

